SVG_Azure_Grouped/Management/Azure Automation Runbook Schedule.svg

<?xml version="1.0" encoding="UTF-8" standalone="no"?>
<!-- Generated by Microsoft Visio, SVG Export Azure Automation Runbook Schedule.svg Page-1 -->

<svg
   xmlns:dc="http://purl.org/dc/elements/1.1/"
   xmlns:cc="http://creativecommons.org/ns#"
   xmlns:rdf="http://www.w3.org/1999/02/22-rdf-syntax-ns#"
   xmlns:svg="http://www.w3.org/2000/svg"
   xmlns="http://www.w3.org/2000/svg"
   xmlns:sodipodi="http://sodipodi.sourceforge.net/DTD/sodipodi-0.dtd"
   xmlns:inkscape="http://www.inkscape.org/namespaces/inkscape"
   width="0.78739846in"
   height="0.78739846in"
   viewBox="0 0 56.692597 56.693"
   xml:space="preserve"
   class="st5"
   version="1.1"
   id="svg57"
   sodipodi:docname="Azure Automation Runbook Schedule.svg"
   style="font-size:12px;overflow:visible;color-interpolation-filters:sRGB;fill:none;fill-rule:evenodd;stroke-linecap:square;stroke-miterlimit:3"
   inkscape:version="0.92.5 (2060ec1f9f, 2020-04-08)"><metadata
   id="metadata61"><rdf:RDF><cc:Work
       rdf:about=""><dc:format>image/svg+xml</dc:format><dc:type
         rdf:resource="http://purl.org/dc/dcmitype/StillImage" /></cc:Work></rdf:RDF></metadata><sodipodi:namedview
   pagecolor="#ffffff"
   bordercolor="#666666"
   borderopacity="1"
   objecttolerance="10"
   gridtolerance="10"
   guidetolerance="10"
   inkscape:pageopacity="0"
   inkscape:pageshadow="2"
   inkscape:window-width="640"
   inkscape:window-height="480"
   id="namedview59"
   showgrid="false"
   inkscape:zoom="1.4193119"
   inkscape:cx="37.795128"
   inkscape:cy="37.784457"
   inkscape:window-x="0"
   inkscape:window-y="0"
   inkscape:window-maximized="0"
   inkscape:current-layer="svg57" />
	<style
   type="text/css"
   id="style2">
	<![CDATA[
		.st1 {fill:url(#grad6-6);stroke:none;stroke-linecap:butt;stroke-width:34}
		.st2 {fill:#ffffff;stroke:none;stroke-linecap:butt;stroke-width:34}
		.st3 {fill:#7a7a7a;stroke:none;stroke-linecap:butt;stroke-width:34}
		.st4 {fill:url(#grad6-14);stroke:none;stroke-linecap:butt;stroke-width:34}
		.st5 {fill:none;fill-rule:evenodd;font-size:12px;overflow:visible;stroke-linecap:square;stroke-miterlimit:3}
	]]>
	</style>

	<defs
   id="Patterns_And_Gradients">
		<radialGradient
   id="grad6-6"
   cx="56.693001"
   cy="68.015697"
   r="79.3702"
   fx="56.693001"
   fy="68.015697"
   gradientUnits="userSpaceOnUse">
			<stop
   offset="0.185"
   stop-color="#5ea0ef"
   stop-opacity="1"
   id="stop4" />
			<stop
   offset="0.555"
   stop-color="#5c9fee"
   stop-opacity="1"
   id="stop6" />
			<stop
   offset="0.69"
   stop-color="#559ced"
   stop-opacity="1"
   id="stop8" />
			<stop
   offset="0.785"
   stop-color="#4a97e9"
   stop-opacity="1"
   id="stop10" />
			<stop
   offset="0.86"
   stop-color="#3990e4"
   stop-opacity="1"
   id="stop12" />
			<stop
   offset="0.93"
   stop-color="#2387de"
   stop-opacity="1"
   id="stop14" />
			<stop
   offset="0.985"
   stop-color="#087bd6"
   stop-opacity="1"
   id="stop16" />
			<stop
   offset="1"
   stop-color="#0078d4"
   stop-opacity="1"
   id="stop18" />
		</radialGradient>
		<radialGradient
   id="grad6-14"
   cx="8.0303802"
   cy="116.67781"
   r="11.242532"
   fx="8.0303802"
   fy="116.67781"
   gradientUnits="userSpaceOnUse">
			<stop
   offset="0"
   stop-color="#7f7f7f"
   stop-opacity="1"
   id="stop21" />
			<stop
   offset="1"
   stop-color="#5e5e5e"
   stop-opacity="1"
   id="stop23" />
		</radialGradient>
	</defs>
	<g
   id="g55"
   transform="translate(-34.000441,-33.999997)">
		<title
   id="title27">Page-1</title>
		<g
   id="group12893-1"
   transform="translate(34,-34.0157)">
			<title
   id="title29">Azure Automation Runbook Schedule.12893</title>
			<g
   id="group12894-2">
				<title
   id="title31">Sheet.12894</title>
				<g
   id="shape12895-3">
					<title
   id="title33">Sheet.12895</title>
					<circle
   cx="28.3465"
   cy="96.362198"
   class="st1"
   id="ellipse35"
   r="28.3465"
   style="fill:url(#grad6-6);stroke:none;stroke-width:34;stroke-linecap:butt" />
				</g>
				<g
   id="shape12896-7"
   transform="translate(3.77842,-3.66503)">
					<title
   id="title38">Sheet.12896</title>
					<circle
   cx="24.6814"
   cy="100.027"
   class="st2"
   id="ellipse40"
   r="24.6814"
   style="fill:#ffffff;stroke:none;stroke-width:34;stroke-linecap:butt" />
				</g>
				<g
   id="shape12897-9"
   transform="translate(7.24002,-7.4868)">
					<title
   id="title43">Sheet.12897</title>
					<path
   d="m 32.69,91.39 2.98,-2.99 0.97,0.96 -2.99,2.99 z m 5.25,11.75 h 4.23 v 1.36 h -4.23 z m -5.45,12.92 0.97,-0.96 2.98,2.99 -0.96,0.97 z m -11.96,4.42 h 1.37 v 4.23 H 20.53 Z M 5.66,89.22 6.62,88.26 9.61,91.25 8.64,92.21 Z m 0.2,28.99 2.99,-2.99 0.96,0.97 -2.99,2.99 z M 0,103.14 h 4.23 v 1.36 H 0 Z m 31.41,8.28 -7.17,-7.17 a 1.72747,1.72747 -180 0 0 -1.17,-0.5 1.69078,1.69078 -180 0 0 0.21,-0.79 V 84.7 a 1.74081,1.74081 -180 0 0 -1.73,-1.74 h -0.33 a 1.74081,1.74081 -180 0 0 -1.74,1.74 v 18.26 a 1.74081,1.74081 -180 0 0 1.74,1.74 h 0.19 a 1.71413,1.71413 -180 0 0 0.14,2.23 l 7.17,7.17 a 1.73747,1.73747 -180 0 0 2.45,0 l 0.24,-0.23 a 1.73747,1.73747 -180 0 0 0,-2.45 z"
   class="st3"
   id="path45"
   inkscape:connector-curvature="0"
   style="fill:#7a7a7a;stroke:none;stroke-width:34;stroke-linecap:butt" />
				</g>
				<g
   id="shape12898-11"
   transform="translate(24.4613,-24.378)">
					<title
   id="title48">Sheet.12898</title>
					<circle
   cx="4.0151901"
   cy="120.693"
   class="st4"
   id="ellipse50"
   r="4.0151901"
   style="fill:url(#grad6-14);stroke:none;stroke-width:34;stroke-linecap:butt" />
				</g>
			</g>
		</g>
	</g>
</svg>

<?xml version="1.0" encoding="UTF-8" standalone="no"?>
<!DOCTYPE svg PUBLIC "-//W3C//DTD SVG 1.1//EN" "http://www.w3.org/Graphics/SVG/1.1/DTD/svg11.dtd">
<!-- Generated by Microsoft Visio, SVG Export Azure Automation Runbook Schedule.svg Page-1 -->
<svg xmlns="http://www.w3.org/2000/svg" xmlns:xlink="http://www.w3.org/1999/xlink" xmlns:ev="http://www.w3.org/2001/xml-events"
		width="1.73185in" height="1.73206in" viewBox="0 0 124.693 124.709" xml:space="preserve" color-interpolation-filters="sRGB"
		class="st5">
	<style type="text/css">
	<![CDATA[
		.st1 {fill:url(#grad6-6);stroke:none;stroke-linecap:butt;stroke-width:34}
		.st2 {fill:#ffffff;stroke:none;stroke-linecap:butt;stroke-width:34}
		.st3 {fill:#7a7a7a;stroke:none;stroke-linecap:butt;stroke-width:34}
		.st4 {fill:url(#grad6-14);stroke:none;stroke-linecap:butt;stroke-width:34}
		.st5 {fill:none;fill-rule:evenodd;font-size:12px;overflow:visible;stroke-linecap:square;stroke-miterlimit:3}
	]]>
	</style>

	<defs id="Patterns_And_Gradients">
		<radialGradient id="grad6-6" cx="1" cy="0" r="1.4">
			<stop offset="0.185" stop-color="#5ea0ef" stop-opacity="1"/>
			<stop offset="0.555" stop-color="#5c9fee" stop-opacity="1"/>
			<stop offset="0.69" stop-color="#559ced" stop-opacity="1"/>
			<stop offset="0.785" stop-color="#4a97e9" stop-opacity="1"/>
			<stop offset="0.86" stop-color="#3990e4" stop-opacity="1"/>
			<stop offset="0.93" stop-color="#2387de" stop-opacity="1"/>
			<stop offset="0.985" stop-color="#087bd6" stop-opacity="1"/>
			<stop offset="1" stop-color="#0078d4" stop-opacity="1"/>
		</radialGradient>
		<radialGradient id="grad6-14" cx="1" cy="0" r="1.4">
			<stop offset="0" stop-color="#7f7f7f" stop-opacity="1"/>
			<stop offset="1" stop-color="#5e5e5e" stop-opacity="1"/>
		</radialGradient>
	</defs>
	<g>
		<title>Page-1</title>
		<g id="group12600-1" transform="translate(34,-34.0157)">
			<title>Azure Automation Runbook Schedule.12600</title>
			<g id="group12601-2">
				<title>Sheet.12601</title>
				<g id="shape12602-3">
					<title>Sheet.12602</title>
					<ellipse cx="28.3465" cy="96.3622" rx="28.3465" ry="28.3465" class="st1"/>
				</g>
				<g id="shape12603-7" transform="translate(3.77842,-3.66503)">
					<title>Sheet.12603</title>
					<ellipse cx="24.6814" cy="100.027" rx="24.6814" ry="24.6814" class="st2"/>
				</g>
				<g id="shape12604-9" transform="translate(7.24002,-7.4868)">
					<title>Sheet.12604</title>
					<path d="M32.69 91.39 L35.67 88.4 L36.64 89.36 L33.65 92.35 L32.69 91.39 ZM37.94 103.14 L42.17 103.14 L42.17
								 104.5 L37.94 104.5 L37.94 103.14 ZM32.49 116.06 L33.46 115.1 L36.44 118.09 L35.48 119.06 L32.49
								 116.06 ZM20.53 120.48 L21.9 120.48 L21.9 124.71 L20.53 124.71 L20.53 120.48 ZM5.66 89.22 L6.62 88.26
								 L9.61 91.25 L8.64 92.21 L5.66 89.22 ZM5.86 118.21 L8.85 115.22 L9.81 116.19 L6.82 119.18 L5.86 118.21
								 ZM0 103.14 L4.23 103.14 L4.23 104.5 L0 104.5 L0 103.14 ZM31.41 111.42 L24.24 104.25 A1.72747 1.72747
								 -180 0 0 23.07 103.75 A1.69078 1.69078 -180 0 0 23.28 102.96 L23.28 84.7 A1.74081 1.74081 -180 0
								 0 21.55 82.96 L21.22 82.96 A1.74081 1.74081 -180 0 0 19.48 84.7 L19.48 102.96 A1.74081 1.74081 -180
								 0 0 21.22 104.7 L21.41 104.7 A1.71413 1.71413 -180 0 0 21.55 106.93 L28.72 114.1 A1.73747 1.73747
								 -180 0 0 31.17 114.1 L31.41 113.87 A1.73747 1.73747 -180 0 0 31.41 111.42 Z" class="st3"/>
				</g>
				<g id="shape12605-11" transform="translate(24.4613,-24.378)">
					<title>Sheet.12605</title>
					<ellipse cx="4.01519" cy="120.693" rx="4.01519" ry="4.01519" class="st4"/>
				</g>
			</g>
		</g>
	</g>
</svg>
